X: 25902
T: Matthew's
R: waltz
M: 3/4
K: Emajor
EC|:B,3 B, CE|F3 z EF|G3(A) GF|E2 C3 E|
B,3 B, CE|A4 GF|G6|B4 {F}EC|
B,3 B, CE|F3 z EF|G4 GF|E2 C3 E|
[1 B,3 B, CE|A4 GF|E6|E3 B,EC:|
[2 B,3 B, CE|AB3 GF|E6|E2 G2 B2||
|:c4ce|c2 B2 G2|B4Bc|B3 EGB|
c3 Bce|c2 B2 G2|B6|B3 E GB|
c4ce|c2 B2 G2|B3 GBc|G2 F2 E2|
[1 C3 B, CE|GA3 GF|E4EF|E2 G2 B2:|
[2 C3 B, CE|AB3 GF|E6|E3 B,EC||

